packages/icons/src/SVG/notification-solid.svg

<svg width="12" height="12" viewBox="0 0 12 12" fill="none" xmlns="http://www.w3.org/2000/svg">
<path d="M0.996094 8.00391C1.23047 7.91016 1.42969 7.69531 1.59375 7.35938C1.76562 7.02344 1.90234 6.57031 2.00391 6V3C2.00391 2.58594 2.08203 2.19922 2.23828 1.83984C2.39453 1.47266 2.60547 1.15625 2.87109 0.890625C3.14453 0.617188 3.46484 0.398438 3.83203 0.234375C4.19922 0.078125 4.58984 0 5.00391 0H6.99609C7.41016 0 7.80078 0.078125 8.16797 0.234375C8.53516 0.398438 8.85156 0.617188 9.11719 0.890625C9.39062 1.15625 9.60547 1.47266 9.76172 1.83984C9.91797 2.19922 9.99609 2.58594 9.99609 3V6.01172L10.043 6.22266C10.1445 6.73047 10.2734 7.13281 10.4297 7.42969C10.5938 7.71875 10.7852 7.91016 11.0039 8.00391H12V9H0V8.00391H0.996094ZM6 12C5.58594 12 5.23047 11.8633 4.93359 11.5898C4.64453 11.3242 4.5 11 4.5 10.6172C4.5 10.5312 4.5 10.4102 4.5 10.2539C4.5 10.0898 4.5 10.0078 4.5 10.0078C4.5 10.0078 4.59766 10.0078 4.79297 10.0078C4.98828 10.0078 5.39062 10.0078 6 10.0078C6.60938 10.0078 7.01172 10.0078 7.20703 10.0078C7.40234 10.0078 7.5 10.0078 7.5 10.0078C7.5 10.0078 7.5 10.0508 7.5 10.1367C7.5 10.2227 7.5 10.3828 7.5 10.6172C7.5 11 7.35156 11.3242 7.05469 11.5898C6.76562 11.8633 6.41406 12 6 12Z" fill="#4C505B"/>
</svg>

<!-- Generated by IcoMoon.io -->
<svg version="1.1" xmlns="http://www.w3.org/2000/svg" width="12" height="12" viewBox="0 0 12 12">
<title>notification-solid</title>
<path d="M0.996 8.004c0.234-0.094 0.434-0.309 0.598-0.645 0.172-0.336 0.309-0.789 0.41-1.359v-3c0-0.414 0.078-0.801 0.234-1.16 0.156-0.367 0.367-0.684 0.633-0.949 0.273-0.273 0.594-0.492 0.961-0.656 0.367-0.156 0.758-0.234 1.172-0.234h1.992c0.414 0 0.805 0.078 1.172 0.234 0.367 0.164 0.684 0.383 0.949 0.656 0.273 0.266 0.488 0.582 0.645 0.949 0.156 0.359 0.234 0.746 0.234 1.16v3.012l0.047 0.211c0.101 0.508 0.23 0.91 0.387 1.207 0.164 0.289 0.355 0.48 0.574 0.574h0.996v0.996h-12v-0.996h0.996zM6 12c-0.414 0-0.77-0.137-1.066-0.41-0.289-0.266-0.434-0.59-0.434-0.973 0-0.086 0-0.207 0-0.363 0-0.164 0-0.246 0-0.246s0.098 0 0.293 0c0.195 0 0.598 0 1.207 0s1.012 0 1.207 0c0.195 0 0.293 0 0.293 0s0 0.043 0 0.129c0 0.086 0 0.246 0 0.481 0 0.383-0.148 0.707-0.445 0.973-0.289 0.274-0.641 0.41-1.055 0.41z"></path>
</svg>
